src/video.svg

<svg viewBox="0 0 16 16" fill="none" xmlns="http://www.w3.org/2000/svg"><path fill-rule="evenodd" clip-rule="evenodd" d="M9 11V5H2V11H9ZM1 4H10V12H1V4ZM14 10.37V5.62L12 6.62V9.37L14 10.37ZM11 6L15 4V12L11 10V6Z" fill="#111111"/></svg>

<svg viewBox="0 0 16 16" fill="none" xmlns="http://www.w3.org/2000/svg"><path fill-rule="evenodd" clip-rule="evenodd" d="M9 11V5H2v6h7ZM1 4h9v8H1V4Zm13 6.37V5.62l-2 1v2.75l2 1ZM11 6l4-2v8l-4-2V6Z" fill="#111111"/></svg>
